X:1
T:O God, My Faithful God
T:Text: Johann Heermann, 1630; tr. Catherine Winkworth, 1863, alt. Tune: Ahasuerus Fritsch, 1679; harm. Johann S. Bach, 1685-1750, in Cantata 45
T:67 67 66 66 66 DARMSTADT www.hymnary.org/text/o_god_thou_faithful_god_thou_fount
T:This hymn is in the public domain.  You may freely use this score for personal and congregational worship.  If you reproduce the score, please credit Hymnary.org as the source. 
T:O God, My Faithful God
T:This hymn is in the public domain.  You may freely use this score for personal and congregational worship.  If you reproduce the score, please credit Hymnary.org as the source. 
T:This hymn is in the public domain.  You may freely use this score for personal and congregational worship.  If you reproduce the score, please credit Hymnary.org as the source. 
Z:This hymn is in the public domain.  You may freely use this score for personal and congregational worship.  If you reproduce the score, please credit Hymnary.org as the source.
%%score ( 1 2 ) ( 3 4 5 )
L:1/8
M:4/4
K:C
V:1 treble nm="SOPRANO ALTO" snm="S. A."
V:2 treble 
V:3 bass nm="TENOR BASS" snm="T. B."
V:4 bass 
V:5 bass 
V:1
"^1""^2""^3""^4" G2 | E2 DC G2 G2 | A6 A2 | D2 D2 G2 F2 | (E2 D2) C2 | G2 | A2 A2 G2 F2 | E6 D2 | %8
w: O|God, my * faith- ful|God, true|foun- tain ev- er|flow- * ing,|with-|out whom noth- ing|is, all|
w: Give|me the * strength to|do with|read- y heart and|will- * ing|what-|ev- er you com-|mand, my|
w: Keep|me from _ say- ing|words that|lat- er need re-|call- * ing;|guard|me lest i- dle|speech may|
w: When|dan- gers _ gath- er|round, O|keep me calm and|fear- * less;|help|me to bear the|cross when|
 E2 ^F2 G2 A2 | (B2 AG) G2 | G2 | G2 G2 c2 _B2 | A6 A2 | A2 A2 d2 c2 | B6 |1 G2 | A2 G2 A2 B2 | %17
w: per- fect gifts be-|stow- * * ing:|give|me a health- y|frame, and|may I have with-|in|a|con- science free from|
w: call- ing here ful-|fill- * * ing.|Help|me do what I|should in|all that comes my|way;|I|know that you are|
w: from my lips be|fall- * * ing;|but|when with- in my|place I|must and ought to|speak,|then|to my words give|
w: life seems dark and|cheer- * * less.|Help|me, as you have|taught, to|love both great and|small,|and|by your Spir- it's|
 c6 G2 | G2 FE D2 D2 | C6 x2 |] %20
w: blame, a|soul un- * stained by|sin.|
w: good, you|bless those _ who o-|bey.|
w: grace lest|I of- * fend the|weak.|
w: might to|live at * peace with|all.|
V:2
 C2 | C2 B,2 CD E2 | F6 DC | B,A, B,2 C2 D2 | (C2 B,2) G,2 | C2 | C2 F2 FE D2 | C6 D2 | %8
 D2 C2 D2 E2 | D4 B,2 | D2 | C2 C2 CD E2 | F6 F2 | F2 ^F2 G2 GF | G6 |1 G2 | F2 G2 GF ED | C6 D2 | %18
 C2 C2 C2 B,2 | G,6 x2 |] %20
V:3
 x2 | x8 | x8 | x8 | x6 | x2 | x8 | x8 | x8 | (D,2 D,,2) x2 | x2 | x8 | x8 | x8 | x6 |1 x2 | x8 | %17
 x8 | x8 | C,,6 x2 |] %20
V:4
 E,F, | G,2 F,2 G,2 C2 | C6 A,2 | G,2 G,2 G,2 G,2 | (G,3 F,) E,2 | G,2 | F,A, DC B,C CB, | %7
 G,6 G,2 | G,2 A,2 D,G, G,2 | (G,2 ^F,2) D,2 | G,F, | E,D, E,F, G,2 C2 | C6 C2 | D2 A,2 B,2 C2 | %14
 D6 |1 C2 | C2 C2 F,2 G,F, | E,6 D,F, | E,2 F,G, A,2 G,F, | E,6 x2 |] %20
V:5
 C,2 | C,2 D,2 E,2 D,C, | F,6 ^F,2 | G,2 F,2 E,2 B,,2 | (C,2 G,,2) C,2 | E,2 | F,2 D,2 G,2 G,,2 | %7
 C,6 B,,2 | C,2 A,,2 B,,2 C,2 | D,4 G,,2 | B,,2 | C,B,, C,D, E,2 D,C, | F,6 F,E, | %13
 D,2 D,2 B,,2 A,,2 | G,,6 |1 E,2 | F,2 E,2 D,2 G,,2 | A,,6 B,,2 | C,B,, A,,G,, F,,2 G,,2 | %19
 C,6 x2 |] %20

